Catalina-light/actions/16/object-straighten.svg

<svg xmlns="http://www.w3.org/2000/svg" width="16" height="16" viewBox="0 0 16 16">
 <defs>
  <style id="current-color-scheme" type="text/css">
   .ColorScheme-Text { color:#5c616c; } .ColorScheme-Highlight { color:#5294e2; }
  </style>
 </defs>
 <path style="fill:currentColor" class="ColorScheme-Text" d="M 12.037109 1.2070312 C 11.942282 1.2077977 11.880859 1.21875 11.880859 1.21875 L 2.0371094 2.96875 C 1.0522994 3.1424 1.2246094 4.125 1.2246094 4.125 L 1.7246094 7 L 13.912109 7 L 13.037109 2.03125 C 12.906872 1.2926425 12.321591 1.204732 12.037109 1.2070312 z M 1 8 L 1 9 L 2 9 L 2 8 L 1 8 z M 3 8 L 3 9 L 4 9 L 4 8 L 3 8 z M 5 8 L 5 9 L 6 9 L 6 8 L 5 8 z M 7 8 L 7 9 L 8 9 L 8 8 L 7 8 z M 9 8 L 9 9 L 10 9 L 10 8 L 9 8 z M 11 8 L 11 9 L 12 9 L 12 8 L 11 8 z M 13 8 L 13 9 L 14 9 L 14 8 L 13 8 z M 15 8 L 15 9 L 16 9 L 16 8 L 15 8 z M 2.25 10 L 2.96875 13.96875 C 3.1424 14.95356 4.125 14.78125 4.125 14.78125 L 13.96875 13.03125 C 13.96875 13.03125 14.9549 12.85976 14.78125 11.875 L 14.441406 10 L 2.2519531 10 L 2.25 10 z"/>
</svg>

<svg width="16" height="16" viewBox="0 0 16 16" xmlns="http://www.w3.org/2000/svg">
<defs>
<style id="current-color-scheme" type="text/css">.ColorScheme-Text { color:#5c616c; } .ColorScheme-Highlight { color:#5294e2; }</style>
</defs>
<path class="ColorScheme-Text" d="m12.037 1.207c-0.094827 7.665e-4 -0.15625 0.011719-0.15625 0.011719l-9.8437 1.75c-0.98481 0.17365-0.8125 1.1562-0.8125 1.1562l0.5 2.875h12.187l-0.875-4.9688c-0.13024-0.73861-0.71552-0.82652-1-0.82422zm-11.037 6.793v1h1v-1h-1zm2 0v1h1v-1h-1zm2 0v1h1v-1h-1zm2 0v1h1v-1h-1zm2 0v1h1v-1h-1zm2 0v1h1v-1h-1zm2 0v1h1v-1h-1zm2 0v1h1v-1h-1zm-12.75 2 0.71875 3.9688c0.17365 0.98481 1.1562 0.8125 1.1562 0.8125l9.8438-1.75s0.98615-0.17149 0.8125-1.1562l-0.33984-1.875h-12.191z" fill="currentColor"/>
</svg>
